arrow-left-drop-circle-outline.svg

<svg fill="currentColor" viewBox="0 0 24 24"><path d="M22 12A10 10 0 0 0 12 2 10 10 0 0 0 2 12a10 10 0 0 0 10 10 10 10 0 0 0 10-10m-2 0a8 8 0 0 1-8 8 8 8 0 0 1-8-8 8 8 0 0 1 8-8 8 8 0 0 1 8 8m-6-5-5 5 5 5z"/></svg>

<svg  viewBox="0 0 24 24" fill="currentColor"><path  d="M22,12A10,10 0 0,0 12,2A10,10 0 0,0 2,12A10,10 0 0,0 12,22A10,10 0 0,0 22,12M20,12A8,8 0 0,1 12,20A8,8 0 0,1 4,12A8,8 0 0,1 12,4A8,8 0 0,1 20,12M14,7L9,12L14,17V7Z"/></svg>
